X:1115
T:Blooming Molly
A:Wyresdale, Lancashire
B:E and J Winder, 1835-41
L:1/8
M:4/4
O:England
Z:Richard Robinson 
%%TUNEURL: http://www.leeds.ac.uk/music/Info/RRTuneBk/gettune/00001153.html
%%ID:00001153
K:D
A |\
ddde d2AG | FA GE D3A | de ef e2de | fdBG A3 ::
A |\
d>ef3B cd | e3c BA dA | G3F GA BG | FG Az AA dd | \
ef d2 AG FA | GF E2 D3 ::
